X:1
T:FACE ADORABLE DE JÉSUS
T:FACE ADORABLE DE JÉSUS
T:Tutti
%%score 1 2 3 4
L:1/8
Q:1/4=70
M:4/4
K:Bb
V:1 bass nm="Violoncelle" snm="Vlc"
V:2 treble nm="Soprano" snm="S."
V:3 treble nm="Soprano" snm="S."
V:4 bass nm="Basse" snm="B."
V:1
!pp! G,/D,/B,,/D,/ G,/D,/A,/D,/ B,/G,/D,/G,/ B,/G,/D,/G,/ | %1
 B,/G,/E,/G,/ C/G,/E,/G,/ A,/^F,/=E,/F,/ D,/F,/E,/F,/ | %2
 D/G,/D,/G,/ D/G,/C/^F,/ B,/G,/D,/G,/ B,/G,/D,/G,/ | %3
 B,/G,/E,/G,/ C/G,/E,/G,/ A,/^F,/=E,/F,/ D,/F,/E,/F,/ | %4
 G,/D,/B,,/D,/ G,/D,/A,/D,/ ^F,/D,/C,/D,/ A,,/D,/C,/D,/ | %5
 ^F,/D,/C,/D,/ G,/D,/B,,/D,/ A,/D,/C,/D,/ A,,/D,/C,/D,/ | %6
 B,/G,/D,/G,/ B,/G,/C/G,/ A,/G,/E,/G,/ C,/G,/E,/G,/ | %7
 A,/^F,/D,/F,/ B,/F,/C,/F,/ G,/D,/B,,/D,/ G,,2 | %8
!mf! G,/D,/B,,/D,/ G,/D,/A,/D,/ B,/G,/D,/G,/ B,/G,/D,/G,/ | %9
 B,/G,/E,/G,/ C/G,/E,/G,/ A,/^F,/=E,/F,/ D,/F,/E,/F,/ | %10
 D/G,/D,/G,/ D/G,/C/^F,/ B,/G,/D,/G,/ B,/G,/D,/G,/ | %11
 B,/G,/E,/G,/ C/G,/E,/G,/ A,/^F,/=E,/F,/ D,/F,/E,/F,/ | %12
 G,/D,/B,,/D,/ G,/D,/A,/D,/ ^F,/D,/C,/D,/ A,,/D,/C,/D,/ | %13
 ^F,/D,/C,/D,/ G,/D,/B,,/D,/ A,/D,/C,/D,/ A,,/D,/C,/D,/ | %14
 B,/G,/D,/G,/ B,/G,/C/G,/ A,/G,/E,/G,/ C,/G,/E,/G,/ | %15
 A,/^F,/D,/F,/ B,/F,/C,/F,/ G,/D,/B,,/D,/ G,,2 |] %16
V:2
!p! d2 d2 d2 d2 | d2 (ed) c4 | B2 B2 B2 B2 | c2 de A2- A2 | G2 G2 A2 A2 | A2 B-B A4 | d2 d2 c2 c2 | %7
 c2 ((dc)) B4 |!f! d2 d2 d2 d2 | d2 (ed) c4 | B2 B2 B2 B2 | c2 de A2- A2 | G2 G2 A2 A2 | %13
 A2 B-B A4 | d2 d2 c2 c2 | c2 ((dc)) B4 |] %16
V:3
!mf! [DG]2 [DG][^FA] [GB]2 [GB]2 | [GB]2 [Gc]2 [^FA]4 | [Gd]2 [Gd][^Fc] [GB]2 [GB]2 | %3
 [GB]2 [Gc]2 [^FA]4 | [DG]2 [DG][DA] [D^F]2 [DF]2 | [D^F]2 [DG]2 [DA]4 | %6
 [GB]2 [GB][Gc] [GA]2 [GA]2 | [^FA]2 [FB]2 [DG]4 |!p! [DG]2 [DG][^FA] [GB]2 [GB]2 | %9
 [GB]2 [Gc]2 [^FA]4 | [Gd]2 [Gd][^Fc] [GB]2 [GB]2 | [GB]2 [Gc]2 [^FA]4 | %12
 [DG]2 [DG][DA] [D^F]2 [DF]2 | [D^F]2 [DG]2 [DA]4 | [GB]2 [GB][Gc] [GA]2 [GA]2 | %15
 [^FA]2 [FB]2 [DG]4 |] %16
V:4
!mf! [G,B,]2 [G,B,][D,D] [G,D]2 [G,D]2 | [E,E]2 [C,E]2 [D,D]4 | [B,D]2 [B,D][A,D] [G,D]2 [F,D]2 | %3
 [E,E]2 [C,E]2 [D,D]4 | [B,,D]2 [B,,D][B,,D] [D,D]2 [D,D]2 | [D,C]2 [=E,B,]2 [^F,A,]4 | %6
 [G,D]2 [G,D][G,D] [C,E]2 [C,E]2 | [D,D]2 [D,C]2 [G,B,]4 |!p! [G,B,]2 [G,B,][D,D] [G,D]2 [G,D]2 | %9
 [E,E]2 [C,E]2 [D,D]4 | [B,D]2 [B,D][A,D] [G,D]2 [F,D]2 | [E,E]2 [C,E]2 [D,D]4 | %12
 [B,,D]2 [B,,D][B,,D] [D,D]2 [D,D]2 | [D,C]2 [=E,B,]2 [^F,A,]4 | [G,D]2 [G,D][G,D] [C,E]2 [C,E]2 | %15
 [D,D]2 [D,C]2 [G,B,]4 |] %16

